X:1
T:Title
%%score ( 1 2 )
L:1/8
M:6/8
K:Bb
V:1 treble nm="Grand Piano"
V:2 treble 
V:1
 z2[Q:1/4=140] B A2 G | F2 D E2 C | D6- | D2 B A2 G | F2 D E2 =B, | C6- | C2 C C2 E | E2 D D2 ^F | %8
 ^F6- | F2 D D2 ^F | ^F2 A G2 F | G6- | G3 d2 B | A3/2G3/2 D3/2d3/2 | d3- d3/2 z/ =B | c6- | %16
 c3 c2 A | G3/2F3/2 F3/2c3/2 | c3- c3/2 z/ A | B6- | B3 B2 G | F3/2E3/2 E3/2B3/2 | B3- B3/2 z/ G | %23
 A6- | A3 D3/2E3/2 | ^F3/2A3/2 G3/2F3/2 | G6- | G2 z z3 |] %28
V:2
 x6 | x6 | x6 | x6 | x6 | x6 | x6 | x6 | x6 | x6 | x6 | x6 | x6 | x6 | z3 z z/ .c3/2 | x6 | x6 | %17
 x6 | z3 z z/ .B3/2 | x6 | x6 | x6 | z3 z z/ .A3/2 | x6 | x6 | x6 | x6 | x6 |] %28

